packages/ui/public/icons/post-verified-small-icon.svg

<svg width="15" height="15" viewBox="0 0 15 15" fill="none" xmlns="http://www.w3.org/2000/svg">
  <path fill-rule="evenodd" clip-rule="evenodd" d="M5.94772 3.20153L8.72813 3.20153L7.30923 0.211914L5.94772 3.20153ZM3.30332 5.42641L5.26937 3.46421L2.14793 2.35158L3.30332 5.42641ZM3.50599 7.5302C3.50599 5.44644 5.20867 3.74722 7.29639 3.74722C9.38424 3.74722 11.0868 5.42638 11.0868 7.5302C11.0868 9.61396 9.38411 11.3132 7.29639 11.3132C5.20854 11.3132 3.50599 9.61383 3.50599 7.5302ZM9.40405 11.5152L11.3701 9.55303L12.5051 12.6279L9.40405 11.5152ZM11.3096 5.44657L9.34352 3.48437L12.4446 2.37174L11.3096 5.44657ZM5.24916 11.5354L3.28311 9.57319L2.12771 12.648L5.24916 11.5354ZM5.94776 11.8124L8.72817 11.8124L7.35227 14.7877L5.94776 11.8124ZM11.5947 8.86596L11.5947 6.09099L14.5758 7.49275L11.5947 8.86596ZM2.99548 8.89447L2.99548 6.11949L0 7.47834L2.99548 8.89447Z" fill="white" />
  <path fill-rule="evenodd" clip-rule="evenodd" d="M9.91132 6.57428L6.85958 9.54018L5.24707 7.97302L5.83353 7.44073L6.85958 8.43792L9.32486 6.04199L9.91132 6.57428Z" fill="black" />
</svg>

<svg width="15" height="15" fill="none" xmlns="http://www.w3.org/2000/svg"><path fill-rule="evenodd" clip-rule="evenodd" d="M5.948 3.202h2.78L7.31.212l-1.361 2.99ZM3.303 5.426 5.27 3.464 2.148 2.352l1.155 3.074Zm.203 2.104a3.794 3.794 0 0 1 3.79-3.783 3.78 3.78 0 0 1 3.79 3.783 3.794 3.794 0 0 1-3.79 3.783c-2.087 0-3.79-1.7-3.79-3.783Zm5.898 3.985 1.966-1.962 1.135 3.075-3.101-1.113Zm1.906-6.068L9.344 3.484l3.1-1.112-1.134 3.075Zm-6.06 6.088L3.282 9.573l-1.155 3.075 3.121-1.113Zm.698.277h2.78l-1.376 2.976-1.404-2.976Zm5.647-2.946V6.091l2.98 1.402-2.98 1.373Zm-8.6.028V6.12L0 7.48l2.995 1.415Z" fill="#fff"/><path fill-rule="evenodd" clip-rule="evenodd" d="M9.911 6.574 6.86 9.54 5.247 7.973l.587-.532 1.026.997 2.465-2.396.586.532Z" fill="#000"/></svg>
